resources/haticons/SVG/simpleicons.svg

<!-- Generated by IcoMoon.io -->
<svg version="1.1" xmlns="http://www.w3.org/2000/svg" width="24" height="24" viewBox="0 0 24 24">
<title>simpleicons</title>
<path d="M12 12v-1.5c-2.484 0-4.5-2.016-4.5-4.5s2.016-4.5 4.5-4.5 4.5 2.016 4.5 4.5h1.5c0-3.312-2.688-6-6-6s-6 2.688-6 6 2.688 6 6 6zM15.037 12.826c2.858 1.678 3.816 5.355 2.138 8.214h1.68c0.423-0.954 0.642-1.987 0.643-3.030 0.003-4.144-3.352-7.505-7.494-7.51v1.5c1.066 0 2.113 0.286 3.033 0.826zM12.003 10.5v0zM6.828 21.040c-0.528-0.892-0.828-1.93-0.828-3.040v-0.030h-1.5v0.030c-0.002 1.047 0.218 2.084 0.645 3.040zM15 22.5v-6h1.5v-1.5h-9v1.5h1.5v6h-4.5v1.5h15v-1.5zM13.5 22.5h-3v-6h3zM9.078 5.922c-0.043 1.658 1.265 3.035 2.922 3.078 1.597-0.040 2.88-1.326 2.922-2.922 0.043-1.658-1.266-3.035-2.922-3.078-1.597 0.040-2.88 1.326-2.922 2.922zM13.5 6.002c0 0.828-0.672 1.5-1.5 1.5-0.83 0-1.5-0.673-1.5-1.502 0-0.83 0.67-1.5 1.5-1.5 0.828 0 1.5 0.672 1.5 1.502z"></path>
</svg>

<svg xmlns="http://www.w3.org/2000/svg" width="24" height="24"><path d="M12 12v-1.5c-2.484 0-4.5-2.016-4.5-4.5S9.516 1.5 12 1.5s4.5 2.016 4.5 4.5H18c0-3.312-2.688-6-6-6S6 2.688 6 6s2.688 6 6 6zm3.037.826a6.002 6.002 0 0 1 2.138 8.214h1.68a7.504 7.504 0 0 0-6.851-10.54V12c1.066 0 2.113.286 3.033.826zM12.003 10.5zM6.828 21.04A5.943 5.943 0 0 1 6 18v-.03H4.5V18a7.423 7.423 0 0 0 .645 3.04zM15 22.5v-6h1.5V15h-9v1.5H9v6H4.5V24h15v-1.5zm-1.5 0h-3v-6h3zM9.078 5.922A3 3 0 0 0 12 9a3 3 0 0 0 0-6 3 3 0 0 0-2.922 2.922zm4.422.08a1.5 1.5 0 1 1-3.001-.001 1.5 1.5 0 0 1 3.001.001z"/></svg>
